**kern	**kern	**dynam
*part1	*part1	*part1
*staff2	*staff1	*
*I"Piano	*	*
*clefF4	*clefG2	*
*k[f#c#g#d#]	*k[f#c#g#d#]	*
=1	=1	=1
*	*^	*
4.E)	(4a	8aL	.
!	!LO:TX:b:i:t=dim.	!	!
.	.	8B	.
.	8g#)	8eJ	.
!	!LO:TX:a:i:t=sost.	!	!LO:DY:a
[4.AA	(4g#	8g#L	>
.	.	8A	.
.	8f#)	8c#J	.
=	=	=	=
4.AA]	(4f#	8f#L	.
.	.	8A	.
.	8fn)	8cnJ	.
4.AA#X	(4f	8fL	]]
.	.	8Gn	.
.	8e)	8cJ	.
=	=	=	=
*	*	*^	*
!	!	!	!	!LO:DY:a
[4.BB	(4.e	8eL	8ryy	p
.	.	[8F#	4F#X/	.
.	.	8AJ	.	.
4BBB 4BB]	4d#)	4F#] 4A	8ryy	.
.	.	.	4ryy	.
8r	8r	8ryy	.	.
*	*v	*v	*v	*
=	=	=
(4.EE 4.E	8g#L	.
.	8B	.
.	8eJ	.
4.FF# 4.F#	8aL	.
.	8B	.
.	8eJ	.
=	=	=
!	!	!LO:DY:a
4.FF##X 4.F##X	8a#XL	p
.	8B	.
.	8eJ	.
4.GG#) 4.G#	8bL	.
.	8B	.
.	8eJ	.
=	=	=
*	*^	*
4.BB 4.G#	8bL	4.ryy	.
.	8e	.	.
.	8g#J	.	.
4.BB [4.B	(4gg#^	8gg#L	.
.	.	8a	.
.	8ff#)	8dd#J	.
=	=	=	=
2.E 2.B]	(4ff#	8ff#L	.
.	.	8g#	.
.	8ee)	8bJ	.
.	(4ee	8eeL	.
.	.	8e	.
.	8b)	8g#J	.
*	*v	*v	*
=	=	=
*-	*-	*-
!!!system-decoration: {(s1,s2)}
